svgs/sharp-light/wave-square.svg

<svg xmlns="http://www.w3.org/2000/svg" viewBox="0 0 640 512"><!--! Font Awesome Pro 6.6.0 by @fontawesome - https://fontawesome.com License - https://fontawesome.com/license (Commercial License) Copyright 2024 Fonticons, Inc. --><path d="M144 32l16 0 160 0 16 0 0 16 0 400 128 0 0-192 0-16 16 0 144 0 16 0 0 32-16 0-128 0 0 192 0 16-16 0-160 0-16 0 0-16 0-400L176 64l0 192 0 16-16 0L16 272 0 272l0-32 16 0 128 0 0-192 0-16z"/></svg>

<svg xmlns="http://www.w3.org/2000/svg" viewBox="0 0 640 512"><!--! Font Awesome Pro 6.4.0 by @fontawesome - https://fontawesome.com License - https://fontawesome.com/license (Commercial License) Copyright 2023 Fonticons, Inc. --><path d="M144 32h16H320h16V48 448H464V256 240h16H624h16v32H624 496V464v16H480 320 304V464 64H176V256v16H160 16 0V240H16 144V48 32z"/></svg>
